openmetadata-ui/src/main/resources/ui/src/assets/svg/control-button.svg

<svg width="16" height="16" viewBox="0 0 16 16" fill="none" xmlns="http://www.w3.org/2000/svg">
<path d="M4.12003 11.0881C3.69768 11.0881 3.33404 10.9924 3.02912 10.8011C2.72609 10.608 2.49313 10.3419 2.33026 10.0028C2.16738 9.66383 2.08594 9.27557 2.08594 8.83807C2.08594 8.39489 2.16927 8.00379 2.33594 7.66477C2.5026 7.32386 2.73745 7.05777 3.04048 6.86648C3.34351 6.67519 3.70052 6.57955 4.11151 6.57955C4.44295 6.57955 4.7384 6.6411 4.99787 6.7642C5.25734 6.88542 5.46662 7.05587 5.62571 7.27557C5.7867 7.49527 5.88234 7.75189 5.91264 8.04545H5.08594C5.04048 7.84091 4.93632 7.66477 4.77344 7.51705C4.61245 7.36932 4.39654 7.29545 4.12571 7.29545C3.88897 7.29545 3.68158 7.35795 3.50355 7.48295C3.32741 7.60606 3.1901 7.7822 3.09162 8.01136C2.99313 8.23864 2.94389 8.50758 2.94389 8.81818C2.94389 9.13636 2.99219 9.41098 3.08878 9.64205C3.18537 9.87311 3.32173 10.0521 3.49787 10.179C3.6759 10.3059 3.88518 10.3693 4.12571 10.3693C4.2867 10.3693 4.43253 10.34 4.56321 10.2812C4.69579 10.2206 4.80658 10.1345 4.8956 10.0227C4.98651 9.91098 5.04995 9.77652 5.08594 9.61932H5.91264C5.88234 9.90152 5.79048 10.1534 5.63707 10.375C5.48366 10.5966 5.27817 10.7708 5.0206 10.8977C4.76491 11.0246 4.46473 11.0881 4.12003 11.0881ZM8.85795 6.63636V7.31818H6.47443V6.63636H8.85795ZM7.11364 5.59091H7.96307V9.71875C7.96307 9.88352 7.98769 10.0076 8.03693 10.0909C8.08617 10.1723 8.14962 10.2282 8.22727 10.2585C8.30682 10.2869 8.39299 10.3011 8.4858 10.3011C8.55398 10.3011 8.61364 10.2964 8.66477 10.2869C8.71591 10.2775 8.75568 10.2699 8.78409 10.2642L8.9375 10.9659C8.88826 10.9848 8.81818 11.0038 8.72727 11.0227C8.63636 11.0436 8.52273 11.0549 8.38636 11.0568C8.16288 11.0606 7.95455 11.0208 7.76136 10.9375C7.56818 10.8542 7.41193 10.7254 7.29261 10.5511C7.1733 10.3769 7.11364 10.1581 7.11364 9.89489V5.59091ZM9.79759 11V6.63636H10.6186V7.32955H10.6641C10.7436 7.0947 10.8838 6.91004 11.0845 6.77557C11.2872 6.6392 11.5163 6.57102 11.772 6.57102C11.825 6.57102 11.8875 6.57292 11.9595 6.5767C12.0334 6.58049 12.0911 6.58523 12.1328 6.59091V7.40341C12.0987 7.39394 12.0381 7.38352 11.951 7.37216C11.8639 7.3589 11.7768 7.35227 11.6896 7.35227C11.4889 7.35227 11.3099 7.39489 11.1527 7.48011C10.9974 7.56345 10.8743 7.67992 10.7834 7.82955C10.6925 7.97727 10.647 8.14583 10.647 8.33523V11H9.79759ZM13.7173 5.18182V11H12.8679V5.18182H13.7173Z" fill="#6B7280"/>
<rect x="0.5" y="0.5" width="15" height="15" rx="1.5" stroke="#DDE3EA"/>
</svg>

<svg xmlns="http://www.w3.org/2000/svg" width="16" height="16" fill="none"><path fill="#6B7280" d="M4.12 11.088c-.422 0-.786-.096-1.09-.287a1.899 1.899 0 0 1-.7-.798 2.658 2.658 0 0 1-.244-1.165c0-.443.083-.834.25-1.173.167-.341.401-.607.704-.799.304-.19.66-.286 1.072-.286.33 0 .626.061.886.184.26.121.469.292.628.512.16.22.256.476.287.77h-.827a.99.99 0 0 0-.313-.529c-.16-.148-.376-.222-.647-.222-.237 0-.444.063-.622.188-.177.123-.314.3-.412.528a2.019 2.019 0 0 0-.148.807c0 .318.048.593.145.824.096.231.233.41.409.537.178.127.387.19.628.19.16 0 .307-.029.437-.088a.893.893 0 0 0 .333-.258.972.972 0 0 0 .19-.404h.827c-.03.283-.123.534-.276.756a1.586 1.586 0 0 1-.616.523c-.256.127-.556.19-.901.19Zm4.738-4.452v.682H6.474v-.682h2.384ZM7.114 5.591h.85v4.128c0 .165.024.289.073.372.05.081.113.137.19.168.08.028.166.042.259.042a.99.99 0 0 0 .179-.014l.12-.023.152.702a1.66 1.66 0 0 1-.551.09 1.496 1.496 0 0 1-.625-.118 1.072 1.072 0 0 1-.468-.387c-.12-.174-.18-.393-.18-.656V5.59ZM9.798 11V6.636h.82v.694h.046c.08-.235.22-.42.42-.554.203-.137.432-.205.688-.205a3.641 3.641 0 0 1 .36.02v.812a1.523 1.523 0 0 0-.181-.03 1.734 1.734 0 0 0-.261-.02c-.201 0-.38.042-.537.127a.95.95 0 0 0-.506.855V11h-.85Zm3.92-5.818V11h-.85V5.182h.85Z"/><rect width="15" height="15" x=".5" y=".5" stroke="#DDE3EA" rx="1.5"/></svg>
